!!!!SEGMENT: pl-sa--176-a-v-6--001_anonim--msza-kyrie.krn
!!!cenid: 17xx:1612
!!!COM: Anonim
!!!COM-rismID: pe30004985
!!!CDT:
!!!CNT:
!!!OPR: Msza
!!!OTL: Kyrie
!!!OMV: 001
!!!PDT:
!!!AGN: Sacred; Mass
!!!SMS-siglum: PL-SA
!!!SMS-shelfmark: 176/A V 6
!!!SMS-shelfwork: 001-001 M
!!!SMS-variant:
!!!SMS-altvar:
!!!NIFC-rismSourceID: 1001035881
!!!NIFC-islandoraID:
!!!URL-pdf-islandora:
!!!URL-scan: https://bc.bdsandomierz.pl/dlibra/publication/1510/edition/1478/content @EN{Scan in the Sandomierz Diocese Digital Library} @PL{Skany w portalu Cyfrowa Biblioteka Diecezjalna w Sandomierzu}
!!!ONB-nifc: UWAGA: części Mszy: 1. Kyrie, 2. Et in terra, 3. Patrem, 4. Sanctus, 5. Osanna, 6. Benedictus,
!!!AIN: 1 alto 1 bass 1 organ 1 soprn 1 tenor 2 violn
!!!key: E-
**kern	**fba	**kern	**kern	**kern	**text	**kern	**text	**kern	**text	**kern	**text	**kern	**kern
*part9	*part9	*part8	*part7	*part6	*part6	*part5	*part5	*part4	*part4	*part3	*part3	*part2	*part1
*staff9	*staff9	*staff8	*staff7	*staff6	*staff6	*staff5	*staff5	*staff4	*staff4	*staff3	*staff3	*staff2	*staff1
*I"ORGANO	*	*I"Violino 2do	*I"Violino 1mo.	*I"Baſso	*	*I"Tenore.	*	*I"Alto.	*	*I"Canto.	*	*I"Lituo 2do ex Dis ad Libitum	*I"Lituo 1mo ex Dis ad Libitum
*I'org. fig	*	*I'vl 2	*I'vl 1	*I'B.	*	*I'T.	*	*I'A.	*	*I'S.	*	*I'lituo 2	*I'lituo 1
*Iorgan	*	*Ivioln	*Ivioln	*Ibass	*	*Itenor	*	*Ialto	*	*Isoprn	*	*	*
*ICklav	*	*ICstr	*ICstr	*ICvox	*	*ICvox	*	*ICvox	*	*ICvox	*	*ICbras	*ICbras
*clefF4	*	*clefG2	*clefG2	*clefF4	*	*clefC4	*	*clefC3	*	*clefC1	*	*clefG2	*clefG2
*	*	*	*	*	*	*	*	*	*	*	*	*ITrd5c9	*ITrd5c9
*k[b-e-a-]	*	*k[b-e-a-]	*k[b-e-a-]	*k[b-e-a-]	*	*k[b-e-a-]	*	*k[b-e-a-]	*	*k[b-e-a-]	*	*k[b-e-a-]	*k[b-e-a-]
*E-:	*	*E-:	*E-:	*E-:	*	*E-:	*	*E-:	*	*E-:	*	*E-:	*E-:
*M4/4	*	*M4/4	*M4/4	*M4/4	*	*M4/4	*	*M4/4	*	*M4/4	*	*M4/4	*M4/4
*met(c)	*	*met(c)	*met(c)	*met(c)	*	*met(c)	*	*met(c)	*	*met(c)	*	*met(c)	*met(c)
*2\right	*	*2\right	*2\right	*2\right	*	*2\right	*	*2\right	*	*2\right	*	*2\right	*2\right
=1	=1	=1	=1	=1	=1	=1	=1	=1	=1	=1	=1	=1	=1
!LO:TX:t=P:problem=kolejność znaków AA-BB- E- A-	!	!LO:TX:b:t=Kyrie	!LO:TX:b:t=Kyrie	!	!	!	!	!	!	!	!	!	!
!LO:TX:b:t=Kyrie	!	!LO:TX:a:t=Grave.	!LO:TX:a:t=Grave	!LO:TX:a:t=Grave.	!	!LO:TX:a:t=Grave	!	!LO:TX:a:t=Grave	!	!LO:TX:a:t=Grave.	!	!LO:TX:b:t=Kyrie	!LO:TX:b:t=Kyrie
!LO:TX:a:t=Grave.	!	!LO:TX:t=P:problem=kolejność znaków a- b- ee-	!LO:TX:t=P:problem=kolejność znaków a- b- ee-	!LO:TX:t=P:problem=kolejność znaków AA- BB- E- A- B-	!	!LO:TX:t=P:problem=kolejność znaków A- B- e-	!	!LO:TX:t=P:problem=kolejność znaków A- B- e- a-	!	!LO:TX:t=P:problem=kolejność znaków a- b- ee-	!	!LO:TX:a:t=Grave.	!LO:TX:a:t=Grave
4E-\	.	8ee-\L	4gg\	4E-\	Ky-	4B-\	Ky-	4g\	Ky-	4ee-\	Ky-	4G/	4e-\
.	.	8b-\	.	.	.	.	.	.	.	.	.	.	.
4B-\	.	8b-\	4ff\	4B-\	-ri-	4B-\	-ri-	4f\	-ri-	4dd\	-ri-	4B-/	4f\
.	.	8b-\J	.	.	.	.	.	.	.	.	.	.	.
4G\	6	8b-/L	8ee-\L	4G\	-e	4B-\	-e	4g\	-e	4ee-\	-e	4e-\	4g\
.	.	8g/	8ee-\J	.	.	.	.	.	.	.	.	.	.
8r	.	8g/	8ee-\L	8r	.	8r	.	8r	.	8r	.	8r	8r
8D\	.	8b-/J	16bb-\L	8D\	e-	8B-\	e-	8f\	e-	8b-\	e-	8f\	8b-\
.	.	.	16ff\JJ	.	.	.	.	.	.	.	.	.	.
=2	=2	=2	=2	=2	=2	=2	=2	=2	=2	=2	=2	=2	=2
!LO:TX:t=P:problem=mixed beam	!	!	!	!LO:TX:t=P:problem=mixed beam	!	!	!	!	!	!	!	!	!
8E-\L	.	8b-/L	8gg\L	8E-\L	-lei-	4.B-\	-lei-	8g\L	-lei-	16g\LL	-lei-	8g\L	8b-\L
.	.	.	.	.	.	.	.	.	.	16a-\	.	.	.
8D\	6	8b-/J	8ff\J	8D\	.	.	.	8f\J	.	16b-\	.	8f\J	16b-\L
.	.	.	.	.	.	.	.	.	.	16cc\JJ	.	.	16cc\JJ
8E-\	.	8b-/L	8gg\L	8E-\	.	.	.	8g\L	.	8b-\L	.	8g\L	8b-\L
8AA-/J	.	16a-/L	16ff\L	8AA-/J	.	8c\	.	16f\L	.	16a-\L	.	16f\L	16a-\L
.	.	16g/JJ	16ee-\JJ	.	.	.	.	16e-\JJ	.	16g\JJ	.	16e-\JJ	16g\JJ
4BB-/	.	4f/	8dd\L	4BB-/	-son	4F/	-son	4d\	-son	4f/	-son	4B-/	4f\
.	.	.	8b-\J	.	.	.	.	.	.	.	.	.	.
4r	.	8r	8r	4r	.	4r	.	8r	.	8r	.	4r	4r
.	.	8B-/	8B-/	.	.	.	.	8d\	e-	8b-\	e-	.	.
=3	=3	=3	=3	=3	=3	=3	=3	=3	=3	=3	=3	=3	=3
2r	.	8B-/L	8B-/L	1r	.	1r	.	16e-\LL	-lei-	16g\LL	-lei-	1r	1r
.	.	.	.	.	.	.	.	16g\	.	16b-\	.	.	.
.	.	8B-/	8B-/	.	.	.	.	16f\	.	16a-\	.	.	.
.	.	.	.	.	.	.	.	16g\JJ	.	16b-\JJ	.	.	.
.	.	8B-/	8B-/	.	.	.	.	8d\	-son	8f/	-son	.	.
.	.	8B-/J	8B-/J	.	.	.	.	8d\	e-	8b-\	e-	.	.
!	!	!LO:TX:t=P:problem=mixed beam	!LO:TX:t=P:problem=mixed beam	!	!	!	!	!	!	!	!	!	!
4r	.	8B-/L	8B-/L	.	.	.	.	16e-\LL	-lei-	16g\LL	-lei-	.	.
.	.	.	.	.	.	.	.	16g\	.	16b-\	.	.	.
.	.	8B-/	8B-/	.	.	.	.	16f\	.	16a-\	.	.	.
.	.	.	.	.	.	.	.	16g\JJ	.	16b-\JJ	.	.	.
8r	.	8B-/	8B-/	.	.	.	.	8d\	-son	8f/	-son	.	.
8BB-/	.	8dd\J	8ff\J	.	.	.	.	8r	.	8r	.	.	.
=4	=4	=4	=4	=4	=4	=4	=4	=4	=4	=4	=4	=4	=4
8BB-/L	5_ 4_	16ee-\LL	16gg\LL	2r	.	2r	.	2r	.	2r	.	4r	4r
.	.	16gg\	16bb-\	.	.	.	.	.	.	.	.	.	.
8BB-/	.	16ff\	16aa-X\	.	.	.	.	.	.	.	.	.	.
.	.	16gg\JJ	16bb-\JJ	.	.	.	.	.	.	.	.	.	.
8BB-/	5 3	8dd\L	8ff\L	.	.	.	.	.	.	.	.	8r	8r
8BB-/J	.	8dd\J	8bb-\J	.	.	.	.	.	.	.	.	8B-/	8f\
8BB-/L	6_ 4_	16ee-\LL	16ff\LL	4r	.	4r	.	4r	.	4r	.	16e-\LL	16g\LL
.	.	16gg\	16bb-\	.	.	.	.	.	.	.	.	16g\	16b-\
8BB-/J	.	16ff\	16aa-X\	.	.	.	.	.	.	.	.	16f\	16a-\
.	.	16gg\JJ	16bb-\JJ	.	.	.	.	.	.	.	.	16g\JJ	16b-\JJ
!LO:TX:t=P:problem=mixed beam	!	!	!	!	!	!	!	!	!	!	!	!	!
8BB-/L	5 3	4dd\	4ff\	8r	.	8r	.	8r	.	8r	.	4B-/	4f\
16B-\L	.	.	.	16B-\	Kÿ-	16B-\	Ky-	16f\	ky-	16dd\	Kÿ-	.	.
16A-\JJ	.	.	.	16A-\	-ri-	16B-\	-ri-	16f\	-ri-	16dd\	-ri-	.	.
!	!	!	!LO:LB:g=original	!	!	!	!	!	!	!	!	!	!
=5	=5	=5	=5	=5	=5	=5	=5	=5	=5	=5	=5	=5	=5
4G\	6	8r	8r	4G\	-e	4B-\	-e	4g\	-e	4ee-\	-e	8r	8r
.	.	16ee-\LL	16gg\LL	.	.	.	.	.	.	.	.	16g\LL	8b-\
.	.	16dd\JJ	16ff\JJ	.	.	.	.	.	.	.	.	16f\JJ	.
8r	.	8cc\L	8ee-\L	8r	.	8r	.	8r	.	8r	.	8e-\L	8cc\L
!LO:N:vis=8	!	!	!	!	!	!	!	!	!	!	!	!	!
16A-\LL	.	8cc\J	8ee-\J	16A-\	Ky-	16c\	Kÿ-	16e-\	ky-	16cc\	Ky-	8e-\J	16cc\L
!LO:N:vis=8	!	!	!	!	!	!	!	!	!	!	!	!	!
16G\JJ	.	.	.	16G\	-ri-	16B-\	-ri-	16e-\	-ri-	16cc\	-ri-	.	16b-\JJ
!	!	!LO:LB:g=original	!	!	!	!	!	!LO:LB:g=original	!	!LO:LB:g=original	!	!	!
8F\L	6	8dd\L	8aa-\L	8F\	-e	8A-\	-e	8a-\	-e	8dd\	-e	8f\L	8a-\L
8D\J	.	16ee-\L	16gg\L	8E-\	e-	8B-\	e-	16g\LL	e-	16ee-\LL	e-	8B-\J	16g\L
.	.	16ff\JJ	16ff\JJ	.	.	.	.	16f\JJ	.	16ff\JJ	.	.	16f\JJ
!LO:TX:t=P:problem=mixed beam	!	!	!	!LO:TX:t=P:problem=mixed beam	!	!	!	!	!	!	!	!	!
8B-\L	.	4dd\	8ff\L	8B-\L	-lei-	4B-\	-lei-	4f\	-lei-	4dd\	-lei-	4B-/	4f\
8BB-/J	.	.	8bb-\J	8BB-/J	.	.	.	.	.	.	.	.	.
=6	=6	=6	=6	=6	=6	=6	=6	=6	=6	=6	=6	=6	=6
4E-\	.	16ee-\LL	16gg\LL	4E-\	-son	8B-\	-ſon	4g\	-ſon	4ee-\	-ſon	4G/	4e-\
.	.	16gg\	16bb-\	.	.	.	.	.	.	.	.	.	.
.	.	16ff\	16aa-\	.	.	8r	.	.	.	.	.	.	.
.	.	16gg\JJ	16bb-\JJ	.	.	.	.	.	.	.	.	.	.
!	!	!LO:TX:t=P:problem=mixed beam	!LO:TX:t=P:problem=mixed beam	!	!	!	!	!	!	!	!	!	!
8r	.	8ee-\L	8gg\L	8r	.	8r	.	8r	.	8r	.	4r	4r
8E-\	.	8g/J	8b-'/J	8E-\	e-	8B-\	e-	8g\	e-	8ee-\	e-	.	.
!	!	!	!	!LO:LB:g=original	!	!LO:LB:g=original	!	!	!	!	!	!	!
8E-\L	6_ 4_	16a-\LL	16cc\LL	4A-\	-lei-	4c\	-lei-	4a-\	-lei-	16cc\LL	-lei-	4r	4r
.	.	16cc\	16ee-\	.	.	.	.	.	.	16ee-\	.	.	.
8E-\	.	16b-\	16dd-X\	.	.	.	.	.	.	16dd-X\	.	.	.
.	.	16cc\JJ	16ee-\JJ	.	.	.	.	.	.	16ee-\JJ	.	.	.
8E-\	5 3	8g/L	8b-\L	8E-\	-son	8B-\	-son	8g\	-son	8b-\	-son	8r	8ryy
8E-\J	.	8g/J	8ee-\J	8E-\	e-	8B-\	e-	8g\	e-	8ee-\	e-	8g\	8b-\
!	!	!	!	!	!	!	!	!	!	!	!	!LO:LB:g=original	!LO:LB:g=original
=7	=7	=7	=7	=7	=7	=7	=7	=7	=7	=7	=7	=7	=7
8E-\L	6 4	16a-\LL	16cc\LL	4A-\	-lei-	4c\	-lei-	4a-\	-lei-	16cc\LL	-lei-	16a-\LL	16cc\LL
.	.	16cc\	16ee-\	.	.	.	.	.	.	16ee-\	.	16cc\	16ee-\
8E-\	.	16b-\	16dd-X\	.	.	.	.	.	.	16dd-X\	.	16b-\	16dd-X\
.	.	16cc\JJ	16ee-\JJ	.	.	.	.	.	.	16ee-\JJ	.	16cc\JJ	16ee-\JJ
8E-\	5 3	8g/L	8b-\L	8E-\	-son	8B-\	-son	8g\	-son	8b-\	-son	8g\L	8b-\L
8E-\J	.	8g/J	8ee-\J	8E-\	e-	8B-\	e-	8g\	e-	8ee-\	e-	8g\J	8b-\J
!LO:LB:g=original	!	!LO:TX:t=P:problem=mixed beam	!	!	!	!	!	!	!	!	!	!	!
8AAn/L	6_ 5_	8f/L	16ee-\LL	2AAn/	-lei-	2c\	-lei-	2f\	-lei-	2ee-\	-lei-	8f\L	8cc\L
.	.	.	16cc\	.	.	.	.	.	.	.	.	.	.
8AA/	.	8cc\	16an\	.	.	.	.	.	.	.	.	8f\	8cc\
.	.	.	16cc\JJ	.	.	.	.	.	.	.	.	.	.
!	!	!	!LO:TX:t=P:problem=mixed beam	!	!	!	!	!	!	!	!	!	!
8AA/	.	8cc\	8f\L	.	.	.	.	.	.	.	.	8f\	8cc\
8AA/J	x	8f/J	8ee-/J	.	.	.	.	.	.	.	.	8f\J	8cc\J
=8	=8	=8	=8	=8	=8	=8	=8	=8	=8	=8	=8	=8	=8
1BB-	.	1f	1dd	1BB-	-son	1F	-son	1f	-son	1ddn	-son	1f	1b-
=9||	=9||	=9||	=9||	=9||	=9||	=9||	=9||	=9||	=9||	=9||	=9||	=9||	=9||
*M2/4	*	*M2/4	*M2/4	*M2/4	*	*M2/4	*	*M2/4	*	*M2/4	*	*M2/4	*M2/4
!LO:TX:b:t=Kyrie	!	!LO:TX:b:t=Kyrie	!LO:TX:b:t=Kyrie	!LO:TX:b:t=Kyrie	!	!LO:TX:a:t=Allegro	!	!	!	!	!	!LO:TX:b:t=Kyrie	!LO:TX:b:t=Kyrie
!LO:TX:a:t=Allegro	!	!LO:TX:a:t=Allegro	!LO:TX:a:t=allegro	!LO:TX:a:t=Allegro	!	!LO:TX:b:t=Kyrie	!	!LO:TX:a:t=Solo	!	!	!	!LO:TX:a:t=Allegro	!LO:TX:a:t=Allegro
4E-\	.	8e-/L	8e-/L	2r	.	2r	.	2r	.	8b-\	Kÿ-	2r	2r
.	.	8e-/	8e-/	.	.	.	.	.	.	16ee-\LL	-ri-	.	.
.	.	.	.	.	.	.	.	.	.	16dd\JJ	.	.	.
4r	.	8e-/	8e-/	.	.	.	.	.	.	8ee-\	-e	.	.
.	.	8e-/J	8e-/J	.	.	.	.	.	.	8b-\	e-	.	.
!	!	!	!LO:LB:g=original	!	!	!	!	!	!	!	!	!	!
=10	=10	=10	=10	=10	=10	=10	=10	=10	=10	=10	=10	=10	=10
!	!	!	!	!	!	!	!	!LO:TX:a:t=Allegro	!	!	!	!	!
8r	.	4e-/	4e-/	8r	.	8r	.	8r	.	8g/	-lei-	8r	8r
!LO:TX:t=P:problem=mixed beam	!	!	!	!	!	!	!	!	!	!	!	!	!
8E-\L	.	.	.	8E-\	e-	16G\LL	E-	(16e-\LL	E-	8e-/	-ſon	8g\L	8b-\L
.	.	.	.	.	.	16A-\JJ	.	16f\JJ)	.	.	.	.	.
8E-\	.	8r	8r	8E-\	-lei-	8B-\	-lei-	(16g\LL	-lei-	8r	.	8g\	8b-\
.	.	.	.	.	.	.	.	16a-\JJ)	.	.	.	.	.
8EE-/J	.	8e-/	8e-/	8EE-/	-ſon	8G/	-ſon	8b-\	-son	8b-\	e-	8e-\J	8g\J
=11	=11	=11	=11	=11	=11	=11	=11	=11	=11	=11	=11	=11	=11
2r	.	8e-/L	8e-/L	2r	.	2r	.	2r	.	8g\L	-lei-	2r	2r
.	.	8a-/	8a-/	.	.	.	.	.	.	8cc\J	.	.	.
.	.	8e-/	8e-/	.	.	.	.	.	.	8b-\L	.	.	.
.	.	8A-/J	8A-/J	.	.	.	.	.	.	16a-\L	.	.	.
.	.	.	.	.	.	.	.	.	.	16g\JJ	.	.	.
!	!	!	!	!	!	!	!	!	!	!LO:LB:g=original	!	!	!
=12	=12	=12	=12	=12	=12	=12	=12	=12	=12	=12	=12	=12	=12
8r	.	4B-/	4B-/	8r	.	8r	.	8r	.	8f/	-son	8r	8r
!LO:TX:t=P:problem=mixed beam	!	!	!	!	!	!	!	!	!	!	!	!	!
8B-\L	.	.	.	8B-\	e-	(16B-\LL	e-	16d\LL	E-	8f/	.	8B-/L	8f\L
.	.	.	.	.	.	16c\JJ)	.	16e-\JJ	.	.	.	.	.
8B-\	.	8r	8r	8B-\	-lei-	(16d\LL	-lei-	16f\LL	-lei-	8r	.	8B-/	8f\
.	.	.	.	.	.	16e-\JJ)	.	16e-\	.	.	.	.	.
8BB-/J	.	8B-/	8B-/	8BB-/	-ſon	8f\	-ſon	16d\	.	16f/LL	e-	8B-/J	8f\J
.	.	.	.	.	.	.	.	16e-\JJ	.	16g/JJ	-lei-	.	.
!	!	!LO:LB:g=original	!	!	!	!	!	!	!	!	!	!	!
=13	=13	=13	=13	=13	=13	=13	=13	=13	=13	=13	=13	=13	=13
2r	.	8B-/L	8B-/L	2r	.	2r	.	16f\LL	.	16a-\LL	.	2r	2r
.	.	.	.	.	.	.	.	16e-\	.	16g\	.	.	.
.	.	8B-/	8B-/	.	.	.	.	16d\	.	16f\	.	.	.
.	.	.	.	.	.	.	.	16e-\JJ	.	16g\JJ	.	.	.
.	.	8B-/	8B-/	.	.	.	.	16f\LL	.	16a-\LL	.	.	.
.	.	.	.	.	.	.	.	16g\	.	16b-\	.	.	.
.	.	8B-/J	8B-/J	.	.	.	.	16f\	.	16a-\	.	.	.
.	.	.	.	.	.	.	.	16g\JJ	.	16b-\JJ	.	.	.
!	!	!	!	!	!	!	!	!LO:LB:g=original	!	!	!	!	!
=14	=14	=14	=14	=14	=14	=14	=14	=14	=14	=14	=14	=14	=14
8r	.	4e-/	4e-/	8r	.	8r	.	(8f\L	.	(8a-\L	.	8r	8r
!LO:TX:t=P:problem=mixed beam	!	!	!	!	!	!	!	!	!	!	!	!	!
8E-\L	.	.	.	16E-\LL	e-	16G/LL	e-	8e-\J)	.	8g\J)	.	8g\L	8b-\L
.	.	.	.	16F\JJ	.	16A-/JJ	.	.	.	.	.	.	.
8E-\	.	8r	8r	16G\LL	-lei-	8B-\	-lei-	8e-\	-son	8g\	-son	8g\	8b-\
.	.	.	.	16A-\JJ	.	.	.	.	.	.	.	.	.
8EE-/J	.	16g/LL	16g/LL	8B-\	-ſon	8G/	-ſon	8g\	e-	(16b-\LL	e-	8e-\J	8g\J
.	.	16f/JJ	16f/JJ	.	.	.	.	.	.	16cc\JJ)	.	.	.
!	!	!	!	!LO:LB:g=original	!	!LO:LB:g=original	!	!	!	!	!	!	!
=15	=15	=15	=15	=15	=15	=15	=15	=15	=15	=15	=15	=15	=15
2r	.	8en/L	8en/L	2r	.	2r	.	16g\LL	-lei-	16b-\LL	-lei-	2r	2r
.	.	.	.	.	.	.	.	16f\	.	16a-\	.	.	.
.	.	8e/	8e/	.	.	.	.	16en\	.	16g\	.	.	.
.	.	.	.	.	.	.	.	16f\JJ	.	16a-\JJ	.	.	.
.	.	8e/	8e/	.	.	.	.	16g\LL	.	16b-\LL	.	.	.
.	.	.	.	.	.	.	.	16a-X\	.	16cc\	.	.	.
.	.	8e/J	8e/J	.	.	.	.	16g\	.	16b-\	.	.	.
.	.	.	.	.	.	.	.	16a-\JJ	.	16cc\JJ	.	.	.
=16	=16	=16	=16	=16	=16	=16	=16	=16	=16	=16	=16	=16	=16
8r	.	4f/	4f/	8r	.	8r	.	8g\L	.	(8b-\	.	2r	2r
!LO:TX:t=P:problem=mixed beam	!	!	!	!	!	!	!	!	!	!	!	!	!
8F\L	.	.	.	16F\LL	e-	16A-\LL	e-	8f\J	.	8a-\	.	.	.
.	.	.	.	16G\JJ	.	16B-\JJ	.	.	.	.	.	.	.
8F\	.	8r	8r	16A-\LL	-lei-	8c\	-lei-	8f\	-son	8a-\)	-son	.	.
.	.	.	.	16B-\JJ	.	.	.	.	.	.	.	.	.
8FF\J	.	16f/LL	16f/LL	8c\	-son	8A-\	-ſon	8r	.	8r	.	.	.
.	.	16e-X/JJ	16en/JJ	.	.	.	.	.	.	.	.	.	.
=17	=17	=17	=17	=17	=17	=17	=17	=17	=17	=17	=17	=17	=17
4r	.	8d/L	8d/L	4r	.	4r	.	16f\LL	Kÿ-	(16a-\LL	Ky-	2r	2r
.	.	.	.	.	.	.	.	16e-\JJ	.	16g\JJ)	.	.	.
.	.	8d/J	8d/J	.	.	.	.	16d\LL	-ri-	(16f\LL	-ri-	.	.
.	.	.	.	.	.	.	.	16e-\JJ	.	16g\JJ)	.	.	.
8r	.	16d/LL	16d/LL	8r	.	8r	.	8f\	-e	8a-\	-e	.	.
.	.	16e-/	16e-/	.	.	.	.	.	.	.	.	.	.
16D\LL	5_	16f/	16f/	16D\	kÿ-	16A-/	kÿ-	8f\	e-	8a-\	e-	.	.
16E-\JJ	.	16g/JJ	16g/JJ	16E-\	-ri-	16A-/	-ri-	.	.	.	.	.	.
=18	=18	=18	=18	=18	=18	=18	=18	=18	=18	=18	=18	=18	=18
!	!	!	!	!	!	!LO:TX:t=P:problem=mixed beam	!	!	!	!	!	!	!
16F\LL	.	16a-X/LL	16a-X/LL	4.F\	-e	8A-/L	-e	[<2f\	-lei-	[2a-\	-lei-	2r	2r
16E-\	.	16g/	16g/	.	.	.	.	.	.	.	.	.	.
16D\	.	16f/	16f/	.	.	8f\	e-	.	.	.	.	.	.
16E-\JJ	.	16g/JJ	16g/JJ	.	.	.	.	.	.	.	.	.	.
16F\LL	.	16a-/LL	16a-/LL	.	.	8f\	.	.	.	.	.	.	.
16E-\	.	16g/	16g/	.	.	.	.	.	.	.	.	.	.
16D\	.	16f/	16f/	8F\	e-	8A-/J	.	.	.	.	.	.	.
16E-\JJ	x	16g/JJ	16g/JJ	.	.	.	.	.	.	.	.	.	.
!	!	!	!LO:LB:g=original	!	!	!	!	!	!	!	!	!	!
=19	=19	=19	=19	=19	=19	=19	=19	=19	=19	=19	=19	=19	=19
!	!	!	!	!LO:TX:t=P:problem=mixed beam	!	!	!	!	!	!	!	!	!
8F\L	.	8a-/L	8a-/L	8F\L	-lei-	8c\L	-lei-	4f\]	.	4a-\]	.	4r	4r
8BB-\	7	16g/L	16g/L	8BB-/J	.	8d\J	.	.	.	.	.	.	.
.	.	16f/JJ	16f/JJ	.	.	.	.	.	.	.	.	.	.
8E-\	.	8g/L	8g/L	8E-\	-son	8e-\	-son	8e-\	-son	8g\	-son	8r	8r
8G\J	6	8b-/J	8b-/J	16G\	kÿ-	16e-\	kÿ-	16e-\	kÿ-	16b-\	ky-	8e-\	8b-\
.	.	.	.	16G\	-ri-	16e-\	-ri-	16e-\	-ri-	16b-\	-ri-	.	.
!LO:LB:g=original	!	!	!	!	!	!	!	!	!	!LO:LB:g=original	!	!	!
=20	=20	=20	=20	=20	=20	=20	=20	=20	=20	=20	=20	=20	=20
!LO:TX:t=P:problem=mixed beam	!	!	!	!	!	!	!	!	!	!	!	!	!
8A-\L	.	8cc\L	8cc\L	8A-\	-e	8c\	-e	8e-\	-e	8cc\	-e	8e-\L	16cc\LL
.	.	.	.	.	.	.	.	.	.	.	.	.	16b-\
8F\	.	8ff\J	8ff\J	8F\	e-	8c\	e-	8a-\	e-	8ff\	e-	16f\L	16a-\
.	.	.	.	.	.	.	.	.	.	.	.	16e-\JJ	16g\JJ
!	!	!	!	!LO:TX:t=P:problem=mixed beam	!	!	!	!	!	!	!	!LO:LB:g=original	!
8B-\	.	8dd\L	8dd\L	8B-\L	-lei-	4B-\	-lei-	8f\L	-lei-	8dd\L	-lei-	8B-/L	8.f\L
8BB-/J	.	16cc\L	16cc\L	8BB-/J	.	.	.	16e-\L	.	16cc\L	.	16B-/L	.
.	.	16dd\JJ	16dd\JJ	.	.	.	.	16f\JJ	.	16dd\JJ	.	16B-/JJ	16f\Jk
!	!	!	!	!	!	!	!	!	!	!	!	!	!LO:LB:g=original
=21	=21	=21	=21	=21	=21	=21	=21	=21	=21	=21	=21	=21	=21
4E-\	.	8ee-\L	16ee-\LL	4E-\	-ſon	4B-\	-son	4g\	-son	8ee-\	-son	4G/	4e-\
.	.	.	16dd\	.	.	.	.	.	.	.	.	.	.
.	.	8b-\J	16ee-\	.	.	.	.	.	.	8r	.	.	.
.	.	.	16ff\JJ	.	.	.	.	.	.	.	.	.	.
4r	.	16ee-\LL	16gg\LL	4r	.	4r	.	4r	.	4r	.	4r	4r
.	.	16dd\	16ff\	.	.	.	.	.	.	.	.	.	.
.	.	16ee-\	16gg\	.	.	.	.	.	.	.	.	.	.
.	.	16ff\JJ	16aa-\JJ	.	.	.	.	.	.	.	.	.	.
!	!	!LO:LB:g=original	!	!	!	!	!	!	!	!	!	!	!
=22	=22	=22	=22	=22	=22	=22	=22	=22	=22	=22	=22	=22	=22
8E-\L	.	16gg\LL	16bb-\LL	2r	.	2r	.	2r	.	2r	.	16g\LL	16b-\LL
.	.	16ff\	16aa-\	.	.	.	.	.	.	.	.	16f\	16a-\
8E-\	.	16ee-\	16gg\	.	.	.	.	.	.	.	.	16e-\	16g\
.	.	16ff\JJ	16aa-\JJ	.	.	.	.	.	.	.	.	16f\JJ	16a-\JJ
8E-\	.	16gg\LL	16bb-\LL	.	.	.	.	.	.	.	.	16g\LL	16b-\LL
.	.	16aa-\	16ccc\	.	.	.	.	.	.	.	.	16a-\	16cc\
8E-\J	.	16gg\	16bb-\	.	.	.	.	.	.	.	.	16g\	16b-\
.	.	16aa-\JJ	16ccc\JJ	.	.	.	.	.	.	.	.	16a-\JJ	16cc\JJ
=23	=23	=23	=23	=23	=23	=23	=23	=23	=23	=23	=23	=23	=23
4F\	.	4ff\	16aa-\LL	2r	.	2r	.	2r	.	2r	.	4f\	4a-\
.	.	.	16gg\	.	.	.	.	.	.	.	.	.	.
.	.	.	16ff\	.	.	.	.	.	.	.	.	.	.
.	.	.	16gg\JJ	.	.	.	.	.	.	.	.	.	.
4r	.	4r	16aa-\LL	.	.	.	.	.	.	.	.	4r	4r
.	.	.	16bb-\	.	.	.	.	.	.	.	.	.	.
.	.	.	16aa-\	.	.	.	.	.	.	.	.	.	.
.	.	.	16bb-\JJ	.	.	.	.	.	.	.	.	.	.
=24	=24	=24	=24	=24	=24	=24	=24	=24	=24	=24	=24	=24	=24
8BB-/L	7	16ff\LL	16aa-\LL	2r	.	2r	.	2r	.	2r	.	8f\L	16a-\LL
.	.	16ee-\	16gg\	.	.	.	.	.	.	.	.	.	16g\
8BB-/	.	16dd\	16ff\	.	.	.	.	.	.	.	.	8B-\	16f\
.	.	16ee-\JJ	16gg\JJ	.	.	.	.	.	.	.	.	.	16g\JJ
8BB-/	.	16ff\LL	16aa-\LL	.	.	.	.	.	.	.	.	8f\	16a-\LL
.	.	16gg\	16bb-\	.	.	.	.	.	.	.	.	.	16b-\
8BB-/J	.	16ff\	16aa-\	.	.	.	.	.	.	.	.	8f\J	16a-\
.	.	16gg\JJ	16bb-\JJ	.	.	.	.	.	.	.	.	.	16b-\JJ
=25	=25	=25	=25	=25	=25	=25	=25	=25	=25	=25	=25	=25	=25
4E-\	.	8ee-\L	16gg\LL	2r	.	2r	.	2r	.	2r	.	4e-\	4g\
.	.	.	16ff\	.	.	.	.	.	.	.	.	.	.
.	.	8b-\J	16ee-\	.	.	.	.	.	.	.	.	.	.
.	.	.	16ff\JJ	.	.	.	.	.	.	.	.	.	.
4r	.	8b-\L	16gg\LL	.	.	.	.	.	.	.	.	4r	4r
.	.	.	16aa-\	.	.	.	.	.	.	.	.	.	.
.	.	16b-\L	16gg\	.	.	.	.	.	.	.	.	.	.
.	.	16cc\JJ	16aa-\JJ	.	.	.	.	.	.	.	.	.	.
!	!	!	!LO:LB:g=original	!	!	!	!	!	!	!	!	!	!
=26	=26	=26	=26	=26	=26	=26	=26	=26	=26	=26	=26	=26	=26
!LO:TX:t=P:problem=mixed beam	!	!	!	!	!	!	!	!	!	!	!	!	!
8B-\L	.	16dd\LL	16ff\LL	2r	.	2r	.	2r	.	2r	.	2r	2r
.	.	16cc\	16ee-\	.	.	.	.	.	.	.	.	.	.
8B-\	.	16b-\	16dd\	.	.	.	.	.	.	.	.	.	.
.	.	16cc\JJ	16ee-\JJ	.	.	.	.	.	.	.	.	.	.
8B-\	.	16dd\LL	16ff\LL	.	.	.	.	.	.	.	.	.	.
.	.	16ee-\	16gg\	.	.	.	.	.	.	.	.	.	.
8BB-/J	.	16dd\	16ff\	.	.	.	.	.	.	.	.	.	.
.	.	16ee-\JJ	16gg\JJ	.	.	.	.	.	.	.	.	.	.
=27	=27	=27	=27	=27	=27	=27	=27	=27	=27	=27	=27	=27	=27
4C/	.	4cc\	16ee-\LL	2r	.	2r	.	2r	.	2r	.	2r	2r
.	.	.	16dd\	.	.	.	.	.	.	.	.	.	.
.	.	.	16cc\	.	.	.	.	.	.	.	.	.	.
.	.	.	16dd\JJ	.	.	.	.	.	.	.	.	.	.
4r	.	4r	16ee-\LL	.	.	.	.	.	.	.	.	.	.
.	.	.	16ff\	.	.	.	.	.	.	.	.	.	.
.	.	.	16ee-\	.	.	.	.	.	.	.	.	.	.
.	.	.	16ff\JJ	.	.	.	.	.	.	.	.	.	.
=28	=28	=28	=28	=28	=28	=28	=28	=28	=28	=28	=28	=28	=28
8F\L	n	16cc\LL	16ee-\LL	2r	.	2r	.	2r	.	2r	.	8r	8r
.	.	16b-\	16dd\	.	.	.	.	.	.	.	.	.	.
8F\	.	16an\	16cc\	.	.	.	.	.	.	.	.	8f\L	8aX\L
.	.	16b-\JJ	16dd\JJ	.	.	.	.	.	.	.	.	.	.
8F\	7	16cc\LL	16ee-\LL	.	.	.	.	.	.	.	.	8f\	8a\
.	.	16dd\	16ff\	.	.	.	.	.	.	.	.	.	.
8F\J	.	16cc\	16ee-\	.	.	.	.	.	.	.	.	8f\J	8a\J
.	.	16dd\JJ	16ff\JJ	.	.	.	.	.	.	.	.	.	.
=29	=29	=29	=29	=29	=29	=29	=29	=29	=29	=29	=29	=29	=29
8BB-/L	.	8b-/L	16dd\LL	2r	.	2r	.	2r	.	2r	.	8f\L	8b-\L
.	.	.	16ee-\	.	.	.	.	.	.	.	.	.	.
8D/J	.	8b-/	16ff\	.	.	.	.	.	.	.	.	8f\J	8b-\J
.	.	.	16gg\JJ	.	.	.	.	.	.	.	.	.	.
!LO:TX:t=P:problem=mixed beam	!	!	!	!	!	!	!	!	!	!	!	!	!
8F\L	n	8f/	4ccT\	.	.	.	.	.	.	.	.	4f\	4aX\
8FF/J	.	8an/J	.	.	.	.	.	.	.	.	.	.	.
!	!	!	!	!	!	!	!	!LO:LB:g=original	!	!	!	!	!
=30	=30	=30	=30	=30	=30	=30	=30	=30	=30	=30	=30	=30	=30
!	!	!LO:TX:t=P:problem=mixed beam	!LO:TX:t=P:problem=mixed beam	!	!	!	!	!	!	!	!	!	!
4BB-/	.	8b-\L	8b-\L	2r	.	2r	.	8f\	Kÿ-	2r	.	4f\	4b-\
.	.	8B-/	8B-/	.	.	.	.	16b-\LL	-ri-	.	.	.	.
.	.	.	.	.	.	.	.	16an\JJ	.	.	.	.	.
4r	.	8B-/	8B-/	.	.	.	.	8b-\	-e	.	.	4r	4r
.	.	8B-/J	8B-/J	.	.	.	.	8f\	e-	.	.	.	.
!	!	!LO:LB:g=original	!	!	!	!	!	!	!	!	!	!	!
=31	=31	=31	=31	=31	=31	=31	=31	=31	=31	=31	=31	=31	=31
8r	.	4B-/	4B-/	8r	.	8r	.	8d\	-lei-	8r	.	2r	2r
!LO:TX:t=P:problem=mixed beam	!	!	!	!	!	!	!	!	!	!	!	!	!
8B-\L	.	.	.	8B-\	e-	16d\LL	e-	8B-/	-ſon	(16b-\LL	e-	.	.
.	.	.	.	.	.	16e-\JJ	-lei-	.	.	16cc\JJ)	.	.	.
8B-\	.	8r	8r	8B-\	-lei-	8f\	-ſon	8r	.	(16dd\LL	-lei-	.	.
.	.	.	.	.	.	.	.	.	.	16ee-\JJ)	.	.	.
8BB-/J	.	8B-/	8B-/	8BB-/	-ſon	8d\	.	8f\	e-	8ff\	-son	.	.
!	!	!	!	!LO:LB:g=original	!	!	!	!	!	!	!	!	!
=32	=32	=32	=32	=32	=32	=32	=32	=32	=32	=32	=32	=32	=32
2r	.	8B-/L	8B-/L	2r	.	2r	.	8d\L	-lei-	2r	.	2r	2r
.	.	8e-/	8e-/	.	.	.	.	8g\J	.	.	.	.	.
.	.	8d/	8d/	.	.	.	.	8f\L	.	.	.	.	.
.	.	8e-/J	8e-/J	.	.	.	.	16e-\L	.	.	.	.	.
.	.	.	.	.	.	.	.	16d\JJ	.	.	.	.	.
!	!	!	!	!	!	!LO:LB:g=original	!	!	!	!	!	!	!
=33	=33	=33	=33	=33	=33	=33	=33	=33	=33	=33	=33	=33	=33
8r	.	4f/	4f/	8r	.	8r	.	8c\	.	8r	.	2r	2r
!LO:TX:t=P:problem=mixed beam	!	!	!	!	!	!	!	!	!	!	!	!	!
8F\L	.	.	.	8F\	e-	16An\LL	e-	8c\	-son	(16f/LL	e-	.	.
.	.	.	.	.	.	16B-\JJ	.	.	.	16g/JJ)	.	.	.
8F\	.	8r	8r	8F\	-lei-	16c\LL	-lei-	8r	.	(16an\LL	-lei-	.	.
.	.	.	.	.	.	16B-\	.	.	.	16b-\JJ)	.	.	.
8FF/J	.	8f/	8f/	8FF/	-son	16An\	.	(16c\LL	e-	8cc\	-son	.	.
.	.	.	.	.	.	16B-\JJ	.	16d\JJ)	.	.	.	.	.
=34	=34	=34	=34	=34	=34	=34	=34	=34	=34	=34	=34	=34	=34
2r	.	8f/L	8f/L	2r	.	16c\LL	.	16e-\LL	-lei-	2r	.	2r	2r
.	.	.	.	.	.	16B-\	.	16d\	.	.	.	.	.
.	.	8f/	8f/	.	.	16An\	.	16c\	.	.	.	.	.
.	.	.	.	.	.	16B-\JJ	.	16d\JJ	.	.	.	.	.
.	.	8f/	8f/	.	.	16c\LL	.	16e-\LL	.	.	.	.	.
.	.	.	.	.	.	16d\	.	16f\	.	.	.	.	.
.	.	8f/J	8f/J	.	.	16c\	.	16e-\	.	.	.	.	.
.	.	.	.	.	.	16d\JJ	.	16f\JJ	.	.	.	.	.
!LO:LB:g=original	!	!	!	!	!	!	!	!	!	!	!	!	!
=35	=35	=35	=35	=35	=35	=35	=35	=35	=35	=35	=35	=35	=35
8r	.	4B-/	4B-/	8r	.	8c\L	.	(8e-\L	.	8r	.	2r	2r
!LO:TX:t=P:problem=mixed beam	!	!	!	!	!	!	!	!	!	!	!	!	!
8B-\L	.	.	.	8B-\	e-	8B-\J	.	8d\J)	.	16dd\LL	e-	.	.
.	.	.	.	.	.	.	.	.	.	16ee-\JJ	.	.	.
8B-\	.	8r	8r	8B-\	-lei-	8B-\	-son	8d\	-son	8ff\	-lei-	.	.
8BB-/J	.	8B-/	8B-/	8BB-/	-ſon	16B-\LL	e-	(16d\LL	e-	8dd\	-ſon	.	.
.	.	.	.	.	.	16c\JJ	.	16e-\)JJ	.	.	.	.	.
!	!	!	!LO:LB:g=original	!	!	!	!	!	!	!	!	!	!
=36	=36	=36	=36	=36	=36	=36	=36	=36	=36	=36	=36	=36	=36
!LO:TX:a:t=1	!	!	!	!	!	!	!	!	!	!	!	!	!
2r	.	8Bn/L	8Bn/L	2r	.	16d\LL	-lei-	16f\LL	-lei-	2r	.	2r	2r
.	.	.	.	.	.	16c\	.	16e-\	.	.	.	.	.
.	.	8B/	8B/	.	.	16Bn\	.	16d\	.	.	.	.	.
.	.	.	.	.	.	16c\JJ	.	16e-\JJ	.	.	.	.	.
.	.	8B/	8B/	.	.	16d\LL	.	16f\LL	.	.	.	.	.
.	.	.	.	.	.	16e-\	.	16g\	.	.	.	.	.
.	.	8B/J	8B/J	.	.	16d\	.	16f\	.	.	.	.	.
.	.	.	.	.	.	16e-\JJ	.	16g\JJ	.	.	.	.	.
=37	=37	=37	=37	=37	=37	=37	=37	=37	=37	=37	=37	=37	=37
8r	.	4c/	4c/	8r	.	(8d\L	.	8f\L	.	8r	.	2r	2r
!LO:TX:t=P:problem=mixed beam	!	!	!	!	!	!	!	!	!	!	!	!	!
8c\L	.	.	.	8c\	e-	8c\J)	.	8e-\J	.	16ee-\LL	e-	.	.
.	.	.	.	.	.	.	.	.	.	16ff\JJ	.	.	.
8c\	.	8r	8r	8c\	-lei-	8c\	-son	8e-\	-son	8gg\	-lei-	.	.
8C/J	.	16cc\LL	16cc\LL	8C/	-ſon	8r	.	8r	.	8ee-\	-ſon	.	.
.	.	16b-\JJ	16b-\JJ	.	.	.	.	.	.	.	.	.	.
!	!	!	!	!	!	!	!	!LO:LB:g=original	!	!LO:LB:g=original	!	!	!
=38	=38	=38	=38	=38	=38	=38	=38	=38	=38	=38	=38	=38	=38
4r	.	8an\L	8an\L	4r	.	16c\LL	Kÿ-	(16e-\LL	Kÿ-	4r	.	2r	2r
.	.	.	.	.	.	16B-\JJ	.	16d\JJ)	.	.	.	.	.
.	.	8a\J	8a\J	.	.	16An\LL	-ri-	(16c\LL	-ri-	.	.	.	.
.	.	.	.	.	.	16B-\JJ	.	16d\JJ)	.	.	.	.	.
!	!	!	!	!	!	!LO:LB:g=original	!	!	!	!	!	!	!
8r	.	16a\LL	16a\LL	8r	.	8c\	-e	8e-\	-e	8r	.	.	.
.	.	16b-\	16b-\	.	.	.	.	.	.	.	.	.	.
16An\LL	5_	16cc\	16cc\	16An\LL	e-	8c\	e-	8e-\	e-	16ee-\	Ky-	.	.
16B-\JJ	x	16dd\JJ	16dd\JJ	16B-\JJ	.	.	.	.	.	16ee-\	-ri-	.	.
=39	=39	=39	=39	=39	=39	=39	=39	=39	=39	=39	=39	=39	=39
16c\LL	.	16ee-\LL	16ee-\LL	16c\LL	-lei-	2c\	-lei-	8e-\L	-lei-	4ee-\	-e	2r	2r
16B-\	.	16dd\	16dd\	16B-\	.	.	.	.	.	.	.	.	.
16An\	.	16cc\	16cc\	16An\	.	.	.	8cc\J	.	.	.	.	.
16B-\JJ	.	16dd\JJ	16dd\JJ	16B-\JJ	.	.	.	.	.	.	.	.	.
16c\LL	.	16ee-\LL	16ee-\LL	16c\LL	.	.	.	8cc\	-son	4ee-\	e-	.	.
16B-\	.	16dd\	16dd\	16B-\	.	.	.	.	.	.	.	.	.
16An\	.	16cc\	16cc\	16An\	.	.	.	8e-\	e-	.	.	.	.
16B-\JJ	.	16dd\JJ	16dd\JJ	16B-\JJ	.	.	.	.	.	.	.	.	.
=40	=40	=40	=40	=40	=40	=40	=40	=40	=40	=40	=40	=40	=40
8c\L	.	16ee-\LL	16ee-\LL	8c\L	.	8c\L	.	8e-\L	-lei-	4ee-\	-lei-	2r	2r
.	.	16dd\	16dd\	.	.	.	.	.	.	.	.	.	.
8F\	7 n	16ee-\	16ee-\	8F\J	.	8An\J	.	8f\J	.	.	.	.	.
.	.	16cc\JJ	16cc\JJ	.	.	.	.	.	.	.	.	.	.
8B-\	.	8dd\L	8dd\L	8B-\	-son	8B-\	-son	8f\	-so	8dd\	-ſon	.	.
8D\J	6	8ff\J	8ff\J	16D\	ky-	16B-\	kÿ-	16f\	kÿ-	16dd\	ky-	.	.
.	.	.	.	16D\	-ri-	16An\	-ri-	16f\	-ri-	16cc\	-ri-	.	.
!	!	!LO:LB:g=original	!	!LO:LB:g=original	!	!	!	!	!	!	!	!	!
=41	=41	=41	=41	=41	=41	=41	=41	=41	=41	=41	=41	=41	=41
!LO:TX:t=P:problem=mixed beam	!	!	!	!	!	!	!	!	!	!	!	!	!
8E-\L	.	16gg\LL	16gg\LL	8E-\	-e	(16G\LL	-e	8g\	-e	(16b-\LL	-e	2r	2r
!	!	!	!	!	!	!LO:TX:t=P:problem=n above	!	!	!	!	!	!	!
.	.	16aan\	16aan\	.	.	16An\JJ)	.	.	.	16cc\JJ)	.	.	.
8C\	.	16bb-\	16bb-\	8BB-/	e-	16B-\LL	e-	8f\	e-	(16dd\LL	e-	.	.
.	.	16dd\JJ	16dd\JJ	.	.	16c\JJ	.	.	.	16ee-\JJ)	.	.	.
!	!	!	!	!LO:TX:t=P:problem=mixed beam	!	!	!	!	!	!	!	!	!
8F\	n	8cc\L	8cc\L	8F\L	-lei-	4An/	-lei-	4f\	-lei-	4cc\	-lei-	.	.
8FF/J	.	8ff\J	8ff\J	8FF/J	.	.	.	.	.	.	.	.	.
=42	=42	=42	=42	=42	=42	=42	=42	=42	=42	=42	=42	=42	=42
4BB-/	.	8dd\L	8dd\L	4BB-/	-son	4B-\	-son	4f\	-ſon	4b-\	-son	2r	2r
.	.	8b-\J	8b-\J	.	.	.	.	.	.	.	.	.	.
4r	.	4r	4r	4r	.	4r	.	4r	.	4r	.	.	.
=43	=43	=43	=43	=43	=43	=43	=43	=43	=43	=43	=43	=43	=43
2r	.	8d/L	8d/L	8.B-\	kÿ-	2r	.	2r	.	2r	.	2r	2r
.	.	8d/	8d/	.	.	.	.	.	.	.	.	.	.
.	.	.	.	16B-\	-ri-	.	.	.	.	.	.	.	.
.	.	8d/	8d/	8B-\	-e	.	.	.	.	.	.	.	.
.	.	8d/J	8d/J	8B-\	e-	.	.	.	.	.	.	.	.
=44	=44	=44	=44	=44	=44	=44	=44	=44	=44	=44	=44	=44	=44
2r	.	8e-/L	8e-/L	8G\	-lei-	2r	.	2r	.	2r	.	2r	2r
.	.	8e-/	8e-/	8E-\	-ſon	.	.	.	.	.	.	.	.
.	.	8e-/	8e-/	8r	.	.	.	.	.	.	.	.	.
.	.	8e-/J	8e-/J	8B-\	e-	.	.	.	.	.	.	.	.
=45	=45	=45	=45	=45	=45	=45	=45	=45	=45	=45	=45	=45	=45
2r	.	8a-/L	8a-X/L	16c\LL	-lei-	2r	.	2r	.	2r	.	2r	2r
.	.	.	.	16B-\	.	.	.	.	.	.	.	.	.
.	.	8a-/	8a-/	16A-\	.	.	.	.	.	.	.	.	.
.	.	.	.	16G\JJ	.	.	.	.	.	.	.	.	.
.	.	8a-/	8a-/	16F\LL	.	.	.	.	.	.	.	.	.
.	.	.	.	16E-\	.	.	.	.	.	.	.	.	.
.	.	8a-/J	8a-/J	16D\	.	.	.	.	.	.	.	.	.
.	.	.	.	16C\JJ	.	.	.	.	.	.	.	.	.
!	!	!	!LO:LB:g=original	!	!	!	!	!	!	!	!	!	!
=46	=46	=46	=46	=46	=46	=46	=46	=46	=46	=46	=46	=46	=46
2r	.	8g/L	8g/L	16B-\LL	.	2r	.	2r	.	2r	.	2r	2r
.	.	.	.	16A-\	.	.	.	.	.	.	.	.	.
.	.	8g/	8g/	16G\	.	.	.	.	.	.	.	.	.
.	.	.	.	16F\JJ	.	.	.	.	.	.	.	.	.
.	.	8g/	8g/	16E-\LL	.	.	.	.	.	.	.	.	.
.	.	.	.	16D\	.	.	.	.	.	.	.	.	.
.	.	8g/J	8g/J	16C\	.	.	.	.	.	.	.	.	.
.	.	.	.	16BB-\JJ	.	.	.	.	.	.	.	.	.
=47	=47	=47	=47	=47	=47	=47	=47	=47	=47	=47	=47	=47	=47
2r	.	8f/L	8f/L	16A-\LL	.	2r	.	2r	.	2r	.	2r	2r
.	.	.	.	16G\	.	.	.	.	.	.	.	.	.
.	.	8f/	8f/	16F\	.	.	.	.	.	.	.	.	.
.	.	.	.	16E-\JJ	.	.	.	.	.	.	.	.	.
.	.	8b-/	8b-/	16D\LL	.	.	.	.	.	.	.	.	.
.	.	.	.	16C\	.	.	.	.	.	.	.	.	.
.	.	8e-/J	8e-/J	16D\	.	.	.	.	.	.	.	.	.
.	.	.	.	16E-\JJ	.	.	.	.	.	.	.	.	.
!	!	!	!	!LO:LB:g=original	!	!	!	!	!	!	!	!	!
=48	=48	=48	=48	=48	=48	=48	=48	=48	=48	=48	=48	=48	=48
2r	.	4B-/	4B-/	8F\	.	2r	.	2r	.	2r	.	2r	2r
.	.	.	.	8BB-/	-ſon	.	.	.	.	.	.	.	.
.	.	8r	8r	4r	.	.	.	.	.	.	.	.	.
.	.	16B-/LL	16B-/LL	.	.	.	.	.	.	.	.	.	.
.	.	16c/JJ	16c/JJ	.	.	.	.	.	.	.	.	.	.
=49	=49	=49	=49	=49	=49	=49	=49	=49	=49	=49	=49	=49	=49
8BB-/L	5 3	8d/L	8d/L	8F\	kÿ-	2r	.	2r	.	2r	.	2r	2r
8BB-/	6 4	16e-/L	16e-/L	16G\LL	-ri-	.	.	.	.	.	.	.	.
.	.	16c/JJ	16c/JJ	16E-\JJ	.	.	.	.	.	.	.	.	.
8BB-/	5 3	8d/L	8d/L	8F\	-e	.	.	.	.	.	.	.	.
8BB-/J	6 4	16e-/L	16e-/L	16G\LL	e-	.	.	.	.	.	.	.	.
.	.	16c/JJ	16c/JJ	16E-\JJ	.	.	.	.	.	.	.	.	.
=50	=50	=50	=50	=50	=50	=50	=50	=50	=50	=50	=50	=50	=50
4BB-/	.	4d/	4d/	8F\	-lei-	2r	.	2r	.	2r	.	2r	2r
.	.	.	.	8BB-/	-ſon	.	.	.	.	.	.	.	.
4r	.	16r	16r	4r	.	.	.	.	.	.	.	.	.
.	.	16d/LL	16d/LL	.	.	.	.	.	.	.	.	.	.
.	.	16e-/	16e-/	.	.	.	.	.	.	.	.	.	.
.	.	16f/JJ	16f/JJ	.	.	.	.	.	.	.	.	.	.
!	!	!LO:LB:g=original	!	!	!	!	!	!	!	!	!	!	!
=51	=51	=51	=51	=51	=51	=51	=51	=51	=51	=51	=51	=51	=51
8E-\L	5 3	8g/L	8g/L	8B-\	kÿ-	2r	.	2r	.	2r	.	2r	2r
8E-\	6 4	16a-/L	16a-/L	16c\LL	-ri-	.	.	.	.	.	.	.	.
.	.	16f/JJ	16f/JJ	16A-\JJ	.	.	.	.	.	.	.	.	.
8E-\	5 3	8g/L	8g/L	8B-\	-e	.	.	.	.	.	.	.	.
8E-\J	6 4	16a-/L	16a-/L	16c\LL	e-	.	.	.	.	.	.	.	.
.	.	16f/JJ	16f/JJ	16A-\JJ	.	.	.	.	.	.	.	.	.
!LO:LB:g=original	!	!	!	!	!	!	!	!	!	!	!	!	!
=52	=52	=52	=52	=52	=52	=52	=52	=52	=52	=52	=52	=52	=52
4E-\	5 3	8g/L	8g/L	8B-\	-lei-	2r	.	2r	.	2r	.	2r	2r
.	.	8e-/	8e-/	8E-\	-son	.	.	.	.	.	.	.	.
8r	.	8e-/	8e-/	8r	.	.	.	.	.	.	.	.	.
8E-\ 8G	.	8e-/J	8e-/J	8B-\	e-	.	.	.	.	.	.	.	.
=53	=53	=53	=53	=53	=53	=53	=53	=53	=53	=53	=53	=53	=53
8A-\L	.	4e-/	4e-/	16c\LL	-lei-	2r	.	2r	.	2r	.	2r	2r
.	.	.	.	16B-\	.	.	.	.	.	.	.	.	.
8A-\	.	.	.	16A-\	.	.	.	.	.	.	.	.	.
.	.	.	.	16G\JJ	.	.	.	.	.	.	.	.	.
8A-\	.	8r	8r	16F\LL	.	.	.	.	.	.	.	.	.
.	.	.	.	16E-\	.	.	.	.	.	.	.	.	.
8A-\J	.	8a-/	8a-/	16D\	.	.	.	.	.	.	.	.	.
.	.	.	.	16C\JJ	.	.	.	.	.	.	.	.	.
=54	=54	=54	=54	=54	=54	=54	=54	=54	=54	=54	=54	=54	=54
8B-\L	.	8f/L	8f/L	8D/	-son	2r	.	2r	.	2r	.	2r	2r
16B-\L	.	8B-/	8B-/	8BB-/	.	.	.	.	.	.	.	.	.
16A-\JJ	.	.	.	.	.	.	.	.	.	.	.	.	.
8G\L	6	8g/	8g/	8E-\	ky-	.	.	.	.	.	.	.	.
8F\J	.	8a-/J	8a-/J	8F\	-ri-	.	.	.	.	.	.	.	.
!	!	!	!	!LO:LB:g=original	!	!	!	!	!	!	!	!	!
=55	=55	=55	=55	=55	=55	=55	=55	=55	=55	=55	=55	=55	=55
!LO:TX:t=P:problem=mixed beam	!	!LO:TX:t=P:problem=mixed beam	!LO:TX:t=P:problem=mixed beam	!	!	!	!	!	!	!	!	!	!
8E-\L	.	8b-\L	8b-\L	8G\	-e	2r	.	2r	.	2r	.	2r	2r
8A-\	.	16cc\L	16cc\L	16A-\LL	e-	.	.	.	.	.	.	.	.
.	.	16f/JJ	16f/JJ	16B-\JJ	.	.	.	.	.	.	.	.	.
8B-\	.	4f/	4fT/	8BB-/L	-lei-	.	.	.	.	.	.	.	.
8BB-/J	.	.	.	8D/J	.	.	.	.	.	.	.	.	.
=56	=56	=56	=56	=56	=56	=56	=56	=56	=56	=56	=56	=56	=56
!	!	!LO:TX:t=P:problem=mixed beam	!LO:TX:t=P:problem=mixed beam	!	!	!	!	!	!	!	!	!	!
4E-\	.	8e-/L	8e-/L	4E-\	-son	2r	.	2r	.	2r	.	2r	2r
.	.	16ee-\L	16ee-\L	.	.	.	.	.	.	.	.	.	.
.	.	16dd\JJ	16dd\JJ	.	.	.	.	.	.	.	.	.	.
4r	.	8ee-\L	8ee-\L	4r	.	.	.	.	.	.	.	.	.
.	.	8b-\J	8b-\J	.	.	.	.	.	.	.	.	.	.
!	!	!	!LO:LB:g=original	!	!	!	!	!	!	!	!	!LO:LB:g=original	!LO:LB:g=original
=57	=57	=57	=57	=57	=57	=57	=57	=57	=57	=57	=57	=57	=57
8E-\L	.	8b-\L	8b-\L	8E-\	kÿ-	8B-\	Kÿ-	8g\	Kÿ-	8b-\	Kÿ-	8g\L	8b-\L
8E-\	.	16ee-\L	16ee-\L	8E-\	-ri-	8B-\	-ri-	8g\	-ri-	16ee-\LL	-ri-	8g\J	8b-\J
.	.	16dd\JJ	16dd\JJ	.	.	.	.	.	.	16dd\JJ	.	.	.
8E-\	.	8ee-\L	8ee-\L	8E-\	-e	8B-\	-e	8g\	-e	8ee-\	-e	16g\LL	16b-\LL
.	.	.	.	.	.	.	.	.	.	.	.	16f\	16a-\
8E-\J	.	8b-\J	8b-\J	8E-\	e-	8B-\	e-	8g\	e-	8b-\	e-	16e-\	16g\
.	.	.	.	.	.	.	.	.	.	.	.	16f\JJ	16a-\JJ
=58	=58	=58	=58	=58	=58	=58	=58	=58	=58	=58	=58	=58	=58
4E-\	.	8g/L	8g/L	8E-\	-lei-	8B-\	-lei-	8g\	-lei-	8g/	-lei-	8g\L	8b-\L
.	.	8e-/	8e-/	8E-\	-ſon	8B-\	-ſon	8g\	-ſon	8e-/	-ſon	8g\	8b-\
8r	.	8g/	8g/	8r	.	8r	.	8r	.	8r	.	8g\	8b-\
8E-\	.	8b-/J	8b-/J	8E-\	e-	8B-\	e-	8g\	e-	8b-\	Chri-	8e-\J	8g\J
=59	=59	=59	=59	=59	=59	=59	=59	=59	=59	=59	=59	=59	=59
!	!	!LO:TX:t=P:problem=mixed beam	!LO:TX:t=P:problem=mixed beam	!	!	!	!	!	!	!	!	!	!
8E-\L	.	8g/L	8g/L	8E-\L	-lei-	8B-\L	-lei-	8g\L	-lei-	8g\L	-ste	2r	2r
8A-\	.	8cc\J	8cc\J	8A-\	.	8c\	.	16e-\L	.	8cc\J	e-	.	.
.	.	.	.	.	.	.	.	16f\JJ	.	.	.	.	.
8G\	6	8b-\L	8b-/L	8G\	.	8e-\	.	8g\L	.	8b-\L	.	.	.
8A-\J	.	16a-\L	16a-/L	8A-\J	.	8c\J	.	16f\L	.	16a-\L	.	.	.
.	.	16g\JJ	16g/JJ	.	.	.	.	16e-\JJ	.	16g\JJ	.	.	.
!	!	!	!	!	!	!LO:LB:g=original	!	!LO:LB:g=original	!	!LO:LB:g=original	!	!	!
=60	=60	=60	=60	=60	=60	=60	=60	=60	=60	=60	=60	=60	=60
!LO:TX:t=P:problem=mixed beam	!	!	!	!	!	!	!	!	!	!	!	!	!
8B-\L	.	8f/L	8f/L	8B-\	.	8d\	-son	8d\	.	8f/	-lei-	8r	8r
8BB-/J	.	8B-/J	8B-/J	8BB-/	-son	8d\	.	8d\	-son	8f/	-son	8B-/L	8f\L
8r	.	8B-/L	8d/L	8r	.	8r	.	8r	.	8r	.	8B-/	8f\
8BB-/	.	16c/L	16f/L	8B-\	e-	8d\	e-	16d\LL	e-	16f/LL	e-	8B-/J	8f\J
.	.	16d/JJ	16g/JJ	.	.	.	.	16e-\JJ	.	16g/JJ	.	.	.
!	!	!LO:LB:g=original	!	!	!	!	!	!	!	!	!	!	!
=61	=61	=61	=61	=61	=61	=61	=61	=61	=61	=61	=61	=61	=61
8BB-/L	7_	16f/LL	16a-/LL	2B-\	-lei-	8d\L	-lei-	16f\LL	-lei-	16a-\LL	-lei-	2r	2r
.	.	16e-/	16g/	.	.	.	.	16e-\	.	16g\	.	.	.
8BB-/	.	16d/	16f/	.	.	8f\	.	16d\	.	16f\	.	.	.
.	.	16e-/JJ	16g/JJ	.	.	.	.	16e-\JJ	.	16g\JJ	.	.	.
8BB-/	.	16f/LL	16a-/LL	.	.	8d\	.	16f\LL	.	16a-\LL	.	.	.
.	.	16g/	16b-/	.	.	.	.	16g\	.	16b-\	.	.	.
8BB-/J	x	16f/	16a-/	.	.	8B-\J	.	16f\	.	16a-\	.	.	.
.	.	16g/JJ	16b-/JJ	.	.	.	.	16g\JJ	.	16b-\JJ	.	.	.
=62	=62	=62	=62	=62	=62	=62	=62	=62	=62	=62	=62	=62	=62
8E-\L	4	8f/L	8a-/L	4E-\	.	4B-\	.	8f\L	.	8a-\L	.	8r	8r
8E-\J	3	16e-/L	16g/L	.	.	.	.	8e-\J	.	8g\J	.	8g\L	8b-\
.	.	16d/JJ	16f/JJ	.	.	.	.	.	.	.	.	.	.
8r	.	8e-/L	8g/L	8E-\	-son	8B-\	-son	8e-\	-son	8g\	-son	8g\	8b-\L
8E-\	.	16e-/L	16g/L	8E-\	e-	8B-\	e-	(16e-\LL	e-	16g\LL	e-	8e-\J	8g\J
.	.	16f/JJ	16a-/JJ	.	.	.	.	16f\JJ)	.	16a-\JJ	.	.	.
=63	=63	=63	=63	=63	=63	=63	=63	=63	=63	=63	=63	=63	=63
8En\L	5_	16g/LL	16b-\LL	2En\	-lei-	4.B-\	-lei-	16g\LL	-lei-	16b-\LL	-lei-	2r	2r
.	.	16f/	16a-\	.	.	.	.	16f\	.	16a-\	.	.	.
8E\	.	16en/	16g\	.	.	.	.	16en\	.	16g\	.	.	.
.	.	16f/JJ	16a-\JJ	.	.	.	.	16f\JJ	.	16a-\JJ	.	.	.
8E\	.	16g/LL	16b-\LL	.	.	.	.	16g\LL	.	16b-\LL	.	.	.
.	.	16a-/	16cc\	.	.	.	.	16a-\	.	16cc\	.	.	.
8E\J	x	16g/	16b-\	.	.	8G/	.	16g\	.	16b-\	.	.	.
.	.	16a-/JJ	16cc\JJ	.	.	.	.	16a-\JJ	.	16cc\JJ	.	.	.
!LO:LB:g=original	!	!	!	!LO:LB:g=original	!	!	!	!	!	!	!	!	!
=64	=64	=64	=64	=64	=64	=64	=64	=64	=64	=64	=64	=64	=64
!LO:TX:t=P:problem=mixed beam	!	!	!	!	!	!	!	!	!	!	!	!	!
8F\L	4	8g/L	8b-/L	8F\	.	4c\	.	(8g\L	.	8b-\L	.	2r	2r
8FF/J	3	16f/L	16a-/L	8F\	-son	.	.	8f\J)	.	8a-\J	.	.	.
.	.	16en/JJ	16g/JJ	.	.	.	.	.	.	.	.	.	.
8r	.	8f/L	8a-/L	8r	.	8c\	-son	8f\	-son	8a-\	-son	.	.
8F\	.	8f/J	16f/L	8F\	e-	8c\	e-	8f\	e-	16f\LL	e-	.	.
.	.	.	16g/JJ	.	.	.	.	.	.	16g\JJ	.	.	.
!	!	!	!LO:LB:g=original	!	!	!	!	!	!	!	!	!	!
=65	=65	=65	=65	=65	=65	=65	=65	=65	=65	=65	=65	=65	=65
8D\L	.	16f/LL	16a-/LL	2D/	-lei-	2f\	-lei-	16f\LL	-lei-	16a-\LL	-lei-	2r	2r
.	.	16e-X/	16g/	.	.	.	.	16e-\	.	16g\	.	.	.
8D\	.	16d/	16f/	.	.	.	.	16d\	.	16f\	.	.	.
.	.	16e-/JJ	16g/JJ	.	.	.	.	16e-\JJ	.	16g\JJ	.	.	.
8D\	.	16f/LL	16a-/LL	.	.	.	.	16f\LL	.	16a-\LL	.	.	.
.	.	16g/	16b-/	.	.	.	.	16g\	.	16b-\	.	.	.
8D\J	.	16f/	16a-/	.	.	.	.	16f\	.	16a-\	.	.	.
.	.	16g/JJ	16b-/JJ	.	.	.	.	16g\JJ	.	16b-\JJ	.	.	.
=66	=66	=66	=66	=66	=66	=66	=66	=66	=66	=66	=66	=66	=66
8E-\L	4	8f/L	8a-/L	4E-\	.	4B-\	.	(8f\L	.	8a-\L	.	8r	8r
8E-\J	3	16e-/L	16g/L	.	.	.	.	8e-\J)	.	8g\J	.	8g\L	8b-\
.	.	16d/JJ	16f/JJ	.	.	.	.	.	.	.	.	.	.
!	!	!LO:TX:t=P:problem=mixed beam	!LO:TX:t=P:problem=mixed beam	!	!	!	!	!	!	!	!	!	!
8r	.	8e-/L	8g/L	8E-\	-son	8B-\	-son	8e-\	-son	8g\	-son	8g\	8b-\L
16E-\LL	.	8ee-\J	8gg\J	16E-\	kÿ-	16B-\	kÿ-	16g\	kÿ-	16ee-\	kÿ-	8g\J	8b-\J
16F\JJ	.	.	.	16F\	-ri-	16B-\	-ri-	16g\	-ri-	16ee-\	-ri-	.	.
!	!	!LO:LB:g=original	!	!	!	!	!	!LO:LB:g=original	!	!LO:LB:g=original	!	!	!
=67	=67	=67	=67	=67	=67	=67	=67	=67	=67	=67	=67	=67	=67
16G\LL	6_	8ee-\L	8gg\L	4.G\	-e	4.B-\	-e	4.g\	-e	4.ee-\	-e	8g\L	8b-\L
16F\	.	.	.	.	.	.	.	.	.	.	.	.	.
16E-\	.	8ee-\J	8gg\	.	.	.	.	.	.	.	.	8g\	8b-\
16F\JJ	x	.	.	.	.	.	.	.	.	.	.	.	.
16G\LL	.	8ee-\L	8gg\	.	.	.	.	.	.	.	.	8g\	8b-\
16F\	.	.	.	.	.	.	.	.	.	.	.	.	.
16G\	.	8ee-\J	8gg\J	8E-\	e-	8B-\	e-	8g\	e-	8ee-\	e-	8g\J	8b-\J
16E-\JJ	.	.	.	.	.	.	.	.	.	.	.	.	.
=68	=68	=68	=68	=68	=68	=68	=68	=68	=68	=68	=68	=68	=68
!LO:TX:t=P:problem=mixed beam	!	!	!	!	!	!	!	!	!	!	!	!	!
8F\L	.	8cc\L	8aa-\L	8F\	-lei-	8A-X/	-lei-	8a-\	-lei-	8cc\	-lei-	8f\L	8a-\L
8FF/J	.	16ff\L	16aa-\L	8F\	-ſon	8A-/	-ſon	8a-\	-ſon	8cc\	-ſon	8f\	8a-\
.	.	16ee-\JJ	16gg\JJ	.	.	.	.	.	.	.	.	.	.
8r	.	8ff\L	8aa-\L	8r	.	8r	.	8r	.	8r	.	8f\	8a-\
16D\LL	5_	8ff\J	8aa-\J	16D\	kÿ-	16B-\	ky-	16f\LL	e-	16ff\	kÿ-	8f\J	8a-\J
16E-\JJ	.	.	.	16E-\	-ri-	16B-\	-ri-	16g\JJ	.	16ff\	-ri-	.	.
!	!	!	!	!	!	!LO:LB:g=original	!	!	!	!	!	!	!
=69	=69	=69	=69	=69	=69	=69	=69	=69	=69	=69	=69	=69	=69
16F\LL	.	8ff\L	8aa-\L	4.F\	-e	4.A-/	-e	4.a-X\	-lei-	4.ff\	-e	8f\L	8a-\L
16E-\	.	.	.	.	.	.	.	.	.	.	.	.	.
16D\	.	8ff\	8aa-\	.	.	.	.	.	.	.	.	8f\	8a-\
16E-\JJ	.	.	.	.	.	.	.	.	.	.	.	.	.
16F\LL	.	8ff\	8aa-\	.	.	.	.	.	.	.	.	8f\	8a-\
16E-\	.	.	.	.	.	.	.	.	.	.	.	.	.
16D\	.	8ff\J	8aa-\J	8F\	e-	8A-/	e	8a-\	.	8ff\	e-	8f\J	8a-\J
16E-\JJ	x	.	.	.	.	.	.	.	.	.	.	.	.
!	!	!	!	!	!	!	!	!	!	!	!	!LO:LB:g=original	!LO:LB:g=original
=70	=70	=70	=70	=70	=70	=70	=70	=70	=70	=70	=70	=70	=70
!LO:TX:t=P:problem=mixed beam	!	!	!	!LO:TX:t=P:problem=mixed beam	!	!	!	!	!	!	!	!	!
8F\L	.	8ff\L	8aa-\L	8F\L	-lei-	(8c\L	lei-	4a-\	.	4ff\	-lei-	4f\	8a-\L
8BB-\	7	16ee-\L	16gg\L	8BB-/J	.	8d\J)	.	.	.	.	.	.	16g\L
.	.	16dd\JJ	16ff\JJ	.	.	.	.	.	.	.	.	.	16f\JJ
8E-\	6	8ee-\L	8gg\L	8E-\	-son	8B-\	-son	8g\	-son	8ee-\	-ſon	8e-\L	8g\L
8EE-/J	.	16ee-\L	8gg\J	16G\	kÿ-	16B-\	kÿ-	16g\	kÿ-	16ee-\	kÿ-	8e-\J	8b-\J
.	.	16dd\JJ	.	16G\	-ri-	16B-\	-ri-	16g\	-ri-	16ee-\	-ri-	.	.
=71	=71	=71	=71	=71	=71	=71	=71	=71	=71	=71	=71	=71	=71
8AA-/L	6 5	8cc\L	8ff\L	8A-\	-e	8c\	-e	8f\	-e	8ee-\	-e	8e-\L	16cc\LL
.	.	.	.	.	.	.	.	.	.	.	.	.	16b-\
8FF/	.	16ff\L	8ff\J	8F\	e-	8c\	e-	8f\	e-	8ff\	e-	16f\L	16a-\
.	.	16ee-\JJ	.	.	.	.	.	.	.	.	.	16e-\JJ	16g\JJ
!	!	!	!	!LO:TX:t=P:problem=mixed beam	!	!	!	!	!	!	!	!	!
8BB-/	.	8.ddt\L	16ff\LL	8B-\L	-lei	4B-\	-lei	4f\	-lei-	4dd\	-lei-	8B-/L	8.f\L
.	.	.	16gg\	.	.	.	.	.	.	.	.	.	.
8BB-/J	.	.	16aa-\	8BB-/J	.	.	.	.	.	.	.	16B-/L	.
!	!	!LO:N:vis=8	!	!	!	!	!	!	!	!	!	!	!
.	.	16dd\Jk	16bb-\JJ	.	.	.	.	.	.	.	.	16B-/JJ	16f\Jk
=72	=72	=72	=72	=72	=72	=72	=72	=72	=72	=72	=72	=72	=72
4E-\	.	4ee-\	8gg\L	4E-\	.	4B-\	-ſon	4g\	-ſon	4ee-\	-ſon.	4G/	4e-\
.	.	.	8ee-\J	.	.	.	.	.	.	.	.	.	.
4r	.	4r	4r	4r	.	4r	.	4r	.	4r	.	4r	4r
==	==	==	==	==	==	==	==	==	==	==	==	==	==
*-	*-	*-	*-	*-	*-	*-	*-	*-	*-	*-	*-	*-	*-
!!!RDF**kern: < = below
!!!RDF**kern: > = above
!!!system-decoration: [(s1,s2)][(s3,s4,s5,s6)][(s7,s8)][(s9)]
!!!ENC: Marcin Jachim
!!!END: 2020-12-14
!!!ENC: Urszula Świątek
!!!END: 2022-03-23
